; generated by PrusaSlicer 2.9.0 on 2025-02-28 at 14:57:21 UTC


;
;
; 

; external perimeters extrusion width = 0.45mm
; perimeters extrusion width = 0.45mm
; infill extrusion width = 0.45mm
; solid infill extrusion width = 0.45mm
; top infill extrusion width = 0.40mm
; first layer extrusion width = 0.42mm

M73 P0 R111
M73 Q0 S112
M201 X1000 Y1000 Z200 E5000 ; sets maximum accelerations, mm/sec^2
M203 X200 Y200 Z12 E120 ; sets maximum feedrates, mm / sec
M204 S1250 T1250 ; sets acceleration (S) and retract acceleration (R), mm/sec^2
M205 X8.00 Y8.00 Z0.40 E4.50 ; sets the jerk limits, mm/sec
M205 S0 T0 ; sets the minimum extruding and travel feed rate, mm/sec

; printing object Godox_Flash_Polarizer_Outer_Loop.stl id:0 copy 0
; stop printing object Godox_Flash_Polarizer_Outer_Loop.stl id:0 copy 0

;TYPE:Custom
M862.3 P "MK3S" ; printer model check
M862.1 P0.4 ; nozzle diameter check
M115 U3.14.1 ; tell printer latest fw version
G90 ; use absolute coordinates
M83 ; extruder relative mode
M104 S215 ; set extruder temp
M140 S60 ; set bed temp
M190 S60 ; wait for bed temp
M109 S215 ; wait for extruder temp
G28 W ; home all without mesh bed level
G80 X29.4748 Y9.47479 W191.05 H191.05 ; mesh bed levelling

G1 Z0.2 F720
G1 Y-3 F1000 ; go outside print area
G92 E0
G1 X60 E9 F1000 ; intro line
G1 X100 E12.5 F1000 ; intro line

G92 E0
M221 S95

; Don't change E values below. Excessive value can damage the printer.
M907 E430 ; set extruder motor current
G21 ; set units to millimeters
G90 ; use absolute coordinates
M83 ; use relative distances for extrusion

M900 K0.05 ; Filament gcode LA 1.5
M900 K30 ; Filament gcode LA 1.0




M107
;LAYER_CHANGE
;Z:0.2
;HEIGHT:0.2
G1 E-.8 F2100
G1 Z.6 F720
G1 X52.15 Y42.823 F10800
G1 Z.2 F720
G1 E.8 F2100
M204 S800
;TYPE:Skirt/Brim
;WIDTH:0.42
G1 F1200
G1 X52.486 Y42.414 E.0166
G1 X55.607 Y38.97 E.14573
G1 X57.287 Y37.249 E.07541
G1 X60.653 Y34.044 E.14573
G1 X62.455 Y32.451 E.07541
G1 X66.048 Y29.502 E.14574
G1 X67.961 Y28.046 E.07538
G1 X71.761 Y25.37 E.14572
G1 X75.733 Y22.854 E.14742
G1 X77.81 Y21.643 E.07538
G1 X81.909 Y19.452 E.14573
G1 X84.07 Y18.397 E.0754
G1 X88.369 Y16.493 E.14742
G1 X92.705 Y14.82 E.14572
G1 X97.055 Y13.381 E.14366
G1 X99.479 Y12.675 E.07916
G1 X103.987 Y11.545 E.14572
G1 X108.651 Y10.618 E.1491
G1 X110.972 Y10.245 E.07371
G1 X115.579 Y9.677 E.14554
G1 X134.182 Y9.663 E.58328
G1 X139.082 Y10.253 E.15475
G1 X143.662 Y11.048 E.14575
G1 X146.014 Y11.546 E.07538
G1 X190.61 Y22.636 E1.44086
G1 X191.175 Y22.865 E.01911
G1 X192.289 Y23.594 E.04174
G1 X206.406 Y37.711 E.62597
G1 X206.754 Y38.164 E.01791
G1 X207.364 Y39.39 E.04294
G1 X218.454 Y83.986 E1.44086
G1 X219.382 Y88.65 E.1491
G1 X219.755 Y90.971 E.07371
G1 X220.323 Y95.577 E.14551
G1 X220.337 Y114.18 E.58328
G1 X219.755 Y119.028 E.1531
G1 X218.942 Y123.713 E.14909
G1 X218.455 Y126.013 E.07371
G1 X217.325 Y130.521 E.14572
G1 X215.945 Y135.072 E.14911
G1 X214.379 Y139.448 E.14573
G1 X213.486 Y141.681 E.07541
G1 X211.58 Y145.978 E.14739
G1 X209.49 Y150.13 E.14575
G1 X208.357 Y152.19 E.07371
G1 X205.941 Y156.223 E.14741
G1 X203.3 Y160.177 E.14909
G1 X201.896 Y162.117 E.07509
G1 X199.062 Y165.746 E.14437
G1 X195.993 Y169.307 E.1474
G1 X192.751 Y172.713 E.14744
G1 X189.307 Y175.993 E.14912
G1 X185.746 Y179.062 E.1474
G1 X182.229 Y181.81 E.13994
G1 X180.177 Y183.3 E.07951
G1 X176.268 Y185.913 E.14743
G1 X172.19 Y188.357 E.14907
G1 X170.13 Y189.49 E.07371
G1 X165.978 Y191.58 E.14575
G1 X161.681 Y193.486 E.14739
G1 X157.295 Y195.18 E.14742
G1 X152.779 Y196.671 E.14911
G1 X148.3 Y197.911 E.14572
G1 X143.713 Y198.942 E.14741
G1 X139.081 Y199.747 E.14741
G1 X134.421 Y200.323 E.14722
G1 X115.577 Y200.323 E.59084
G1 X110.971 Y199.755 E.14551
G1 X108.65 Y199.382 E.07371
G1 X103.986 Y198.454 E.1491
G1 X59.39 Y187.364 E1.44086
G1 X58.825 Y187.135 E.01911
G1 X57.711 Y186.406 E.04174
G1 X44.136 Y172.831 E.60194
G1 X43.594 Y172.289 E.02403
G1 X42.865 Y171.175 E.04174
G1 X42.636 Y170.61 E.01911
G1 X32.082 Y128.273 E1.36807
G1 X31.048 Y123.662 E.14817
G1 X30.245 Y119.029 E.14743
G1 X29.663 Y114.182 E.15307
G1 X29.677 Y95.579 E.58328
G1 X30.245 Y90.972 E.14554
M73 P0 R110
G1 X30.627 Y88.598 E.07539
G1 X31.534 Y84.04 E.14571
G1 X32.089 Y81.7 E.0754
G1 X33.329 Y77.221 E.14572
G1 X34.055 Y74.928 E.07541
G1 X35.621 Y70.552 E.14573
G1 X36.514 Y68.319 E.07541
G1 X38.397 Y64.07 E.14572
G1 X40.51 Y59.87 E.14741
M73 Q0 S111
G1 X41.669 Y57.764 E.07537
G1 X44.059 Y53.777 E.14575
G1 X45.37 Y51.761 E.0754
G1 X48.046 Y47.961 E.14572
G1 X49.502 Y46.048 E.07538
G1 X52.112 Y42.869 E.12897
M204 S1000
;WIPE_START
G1 F8640
G1 X52.15 Y42.823 E-.01378
G1 X52.486 Y42.414 E-.12222
G1 X54.417 Y40.283 E-.664
;WIPE_END
G1 Z.6 F720
; printing object Godox_Flash_Polarizer_Outer_Loop.stl id:0 copy 0
G1 X135.696 Y191.809 F10800
G1 Z.2 F720
G1 E.8 F2100
M204 S800
;TYPE:Perimeter
;WIDTH:0.419999
G1 F1200
G1 X133.579 Y192.044 E.06678
G1 X131.441 Y192.228 E.06728
G1 X129.298 Y192.36 E.06732
G1 X127.153 Y192.439 E.0673
G1 X125.006 Y192.465 E.06732
G1 X122.86 Y192.439 E.06729
G1 X120.715 Y192.36 E.0673
G1 X118.572 Y192.229 E.06732
G1 X116.433 Y192.045 E.06731
G1 X114.299 Y191.808 E.06732
G1 X112.172 Y191.52 E.0673
G1 X110.053 Y191.179 E.06729
G1 X107.942 Y190.786 E.06733
G1 X105.842 Y190.341 E.06731
G1 X103.74 Y189.842 E.06774
G1 X101.678 Y189.299 E.06686
G1 X99.616 Y188.701 E.06732
G1 X97.57 Y188.053 E.06729
G1 X95.54 Y187.355 E.06731
G1 X93.527 Y186.607 E.06733
G1 X91.534 Y185.81 E.0673
G1 X89.561 Y184.964 E.06731
G1 X87.609 Y184.07 E.06732
G1 X85.68 Y183.129 E.0673
G1 X83.775 Y182.14 E.0673
G1 X81.894 Y181.105 E.06732
G1 X80.039 Y180.025 E.0673
G1 X78.211 Y178.899 E.06732
G1 X76.412 Y177.728 E.0673
G1 X74.642 Y176.514 E.0673
G1 X72.902 Y175.256 E.06732
G1 X71.193 Y173.957 E.06731
G1 X69.517 Y172.615 E.06732
G1 X67.875 Y171.233 E.06729
G1 X66.255 Y169.802 E.06777
G1 X64.605 Y168.265 E.0707
G1 X61.749 Y165.409 E.12664
G1 X60.198 Y163.745 E.07132
G1 X58.776 Y162.136 E.06733
G1 X57.393 Y160.493 E.06734
G1 X56.052 Y158.818 E.06728
G1 X54.752 Y157.109 E.06733
G1 X53.494 Y155.37 E.0673
G1 X52.28 Y153.6 E.0673
G1 X51.109 Y151.8 E.06733
G1 X49.982 Y149.973 E.06731
G1 X48.901 Y148.118 E.06732
G1 X47.866 Y146.238 E.06729
G1 X46.877 Y144.332 E.06733
G1 X45.935 Y142.403 E.06731
G1 X45.041 Y140.452 E.06729
G1 X44.196 Y138.479 E.0673
G1 X43.398 Y136.486 E.06731
G1 X42.65 Y134.473 E.06733
G1 X41.952 Y132.444 E.06728
G1 X41.299 Y130.384 E.06776
G1 X40.705 Y128.336 E.06686
G1 X40.158 Y126.26 E.06731
G1 X39.662 Y124.171 E.06732
G1 X39.217 Y122.071 E.06731
G1 X38.824 Y119.961 E.0673
G1 X38.482 Y117.841 E.06733
G1 X38.193 Y115.714 E.0673
G1 X37.957 Y113.581 E.06729
G1 X37.772 Y111.442 E.06732
G1 X37.64 Y109.299 E.06732
G1 X37.561 Y107.154 E.0673
G1 X37.535 Y105.008 E.06729
G1 X37.561 Y102.861 E.06732
G1 X37.64 Y100.716 E.0673
G1 X37.771 Y98.573 E.06732
G1 X37.955 Y96.435 E.06728
G1 X38.192 Y94.301 E.06732
G1 X38.48 Y92.174 E.0673
G1 X38.821 Y90.054 E.06733
G1 X39.214 Y87.944 E.0673
G1 X39.658 Y85.844 E.0673
G1 X40.154 Y83.755 E.06732
G1 X40.701 Y81.679 E.06731
G1 X41.299 Y79.617 E.06732
G1 X41.947 Y77.571 E.06729
G1 X42.645 Y75.541 E.06731
G1 X43.393 Y73.529 E.0673
G1 X44.19 Y71.535 E.06733
G1 X45.035 Y69.562 E.0673
G1 X45.929 Y67.611 E.06729
G1 X46.87 Y65.681 E.06732
G1 X47.859 Y63.776 E.0673
G1 X48.894 Y61.895 E.06732
G1 X49.975 Y60.04 E.06732
G1 X51.101 Y58.213 E.06729
G1 X52.271 Y56.413 E.06731
G1 X53.485 Y54.643 E.0673
G1 X54.743 Y52.903 E.06732
G1 X56.042 Y51.194 E.06731
G1 X57.384 Y49.518 E.06732
G1 X58.766 Y47.876 E.06729
G1 X60.197 Y46.256 E.06777
G1 X61.736 Y44.604 E.07079
G1 X63.148 Y43.157 E.06339
G1 X64.595 Y41.745 E.06339
G1 X66.257 Y40.197 E.07121
G1 X67.865 Y38.775 E.0673
G1 X69.508 Y37.392 E.06734
G1 X71.189 Y36.047 E.0675
G1 X72.892 Y34.751 E.0671
G1 X74.632 Y33.493 E.06732
G1 X76.402 Y32.279 E.0673
G1 X78.201 Y31.108 E.0673
G1 X80.028 Y29.982 E.06729
G1 X81.883 Y28.901 E.06732
G1 X83.764 Y27.865 E.06733
G1 X85.669 Y26.877 E.06729
G1 X87.598 Y25.935 E.06731
G1 X89.55 Y25.041 E.06732
G1 X91.523 Y24.195 E.06731
G1 X93.516 Y23.398 E.0673
G1 X95.528 Y22.65 E.0673
G1 X97.558 Y21.951 E.06732
G1 X99.604 Y21.303 E.06729
G1 X101.666 Y20.705 E.06732
G1 X103.742 Y20.157 E.06732
G1 X105.83 Y19.661 E.06729
G1 X107.93 Y19.217 E.0673
G1 X110.041 Y18.823 E.06733
G1 X112.16 Y18.482 E.06729
G1 X114.287 Y18.193 E.0673
G1 X116.421 Y17.956 E.06732
G1 X118.559 Y17.772 E.06728
G1 X120.702 Y17.64 E.06732
G1 X122.847 Y17.561 E.0673
G1 X124.581 Y17.54 E.05437
G1 X127.154 Y17.561 E.08068
G1 X129.299 Y17.64 E.0673
G1 X131.428 Y17.771 E.06688
G1 X133.567 Y17.955 E.06731
G1 X135.701 Y18.192 E.06732
G1 X137.828 Y18.48 E.0673
G1 X139.947 Y18.821 E.06729
G1 X142.058 Y19.214 E.06733
G1 X144.158 Y19.659 E.06731
G1 X146.246 Y20.154 E.06728
G1 X148.322 Y20.701 E.06731
G1 X150.384 Y21.299 E.06732
G1 X152.43 Y21.947 E.06729
G1 X154.46 Y22.645 E.06731
G1 X156.486 Y23.398 E.06777
G1 X158.479 Y24.196 E.06731
G1 X160.452 Y25.041 E.0673
G1 X162.403 Y25.936 E.0673
G1 X164.332 Y26.877 E.0673
G1 X166.238 Y27.866 E.06733
G1 X168.118 Y28.901 E.06729
G1 X169.973 Y29.982 E.06732
G1 X171.8 Y31.109 E.06731
G1 X173.6 Y32.28 E.06733
G1 X175.37 Y33.494 E.0673
G1 X177.109 Y34.752 E.0673
G1 X178.807 Y36.043 E.06688
G1 X180.483 Y37.385 E.06732
G1 X182.125 Y38.767 E.06729
G1 X183.745 Y40.198 E.06777
G1 X185.395 Y41.735 E.0707
G1 X188.251 Y44.591 E.12664
G1 X189.802 Y46.255 E.07132
G1 X191.224 Y47.864 E.06733
G1 X192.607 Y49.507 E.06734
G1 X193.957 Y51.193 E.06772
G1 X195.256 Y52.902 E.06731
G1 X196.514 Y54.642 E.06732
G1 X197.728 Y56.412 E.0673
G1 X198.899 Y58.211 E.0673
G1 X200.025 Y60.039 E.06732
G1 X201.105 Y61.894 E.0673
G1 X202.14 Y63.775 E.06732
G1 X203.129 Y65.68 E.0673
G1 X204.07 Y67.609 E.0673
G1 X204.964 Y69.561 E.06732
G1 X205.81 Y71.534 E.06731
G1 X206.607 Y73.527 E.0673
G1 X207.355 Y75.54 E.06733
G1 X208.053 Y77.57 E.06731
G1 X208.701 Y79.616 E.06729
G1 X209.299 Y81.678 E.06732
G1 X209.846 Y83.754 E.06731
G1 X210.341 Y85.842 E.06728
G1 X210.786 Y87.942 E.06731
G1 X211.179 Y90.053 E.06733
G1 X211.52 Y92.172 E.06729
G1 X211.807 Y94.286 E.06689
G1 X212.045 Y96.433 E.06773
G1 X212.229 Y98.572 E.06731
G1 X212.36 Y100.715 E.06732
G1 X212.439 Y102.86 E.0673
G1 X212.465 Y105.006 E.06729
G1 X212.439 Y107.153 E.06732
G1 X212.36 Y109.298 E.0673
G1 X212.228 Y111.441 E.06732
G1 X212.045 Y113.565 E.06684
G1 X211.808 Y115.699 E.06732
G1 X211.52 Y117.826 E.0673
G1 X211.179 Y119.946 E.06733
G1 X210.786 Y122.056 E.0673
G1 X210.342 Y124.156 E.0673
G1 X209.846 Y126.245 E.06732
G1 X209.299 Y128.321 E.06731
G1 X208.701 Y130.383 E.06732
G1 X208.053 Y132.429 E.06729
G1 X207.355 Y134.459 E.06731
G1 X206.607 Y136.471 E.0673
G1 X205.81 Y138.465 E.06733
G1 X204.965 Y140.438 E.0673
G1 X204.071 Y142.389 E.06729
G1 X203.13 Y144.319 E.06732
G1 X202.141 Y146.224 E.0673
G1 X201.106 Y148.105 E.06732
G1 X200.025 Y149.96 E.06732
G1 X198.899 Y151.787 E.06729
G1 X197.729 Y153.587 E.06731
G1 X196.515 Y155.357 E.0673
G1 X195.257 Y157.097 E.06732
G1 X193.958 Y158.806 E.06731
G1 X192.616 Y160.482 E.06732
G1 X191.234 Y162.124 E.06729
G1 X189.803 Y163.744 E.06777
G1 X188.264 Y165.396 E.07079
G1 X186.852 Y166.843 E.06339
G1 X185.405 Y168.255 E.06339
G1 X183.743 Y169.803 E.07121
G1 X182.135 Y171.225 E.0673
G1 X180.492 Y172.608 E.06734
G1 X178.816 Y173.949 E.0673
G1 X177.108 Y175.249 E.0673
G1 X175.368 Y176.507 E.06732
G1 X173.598 Y177.721 E.0673
G1 X171.799 Y178.892 E.0673
G1 X169.972 Y180.018 E.06729
G1 X168.117 Y181.099 E.06732
G1 X166.236 Y182.135 E.06733
G1 X164.331 Y183.123 E.06729
G1 X162.402 Y184.065 E.06731
G1 X160.45 Y184.959 E.06732
G1 X158.477 Y185.805 E.06731
G1 X156.484 Y186.602 E.0673
G1 X154.472 Y187.35 E.0673
G1 X152.442 Y188.049 E.06732
G1 X150.396 Y188.697 E.06729
G1 X148.334 Y189.295 E.06732
G1 X146.258 Y189.843 E.06732
G1 X144.17 Y190.339 E.06729
G1 X142.07 Y190.783 E.0673
G1 X139.959 Y191.177 E.06733
G1 X137.84 Y191.518 E.06729
G1 X135.756 Y191.801 E.06594
M204 S1000
G1 X135.655 Y191.434 F10800
M204 S800
;TYPE:External perimeter
G1 F1200
G1 X133.533 Y191.669 E.06694
G1 X131.406 Y191.852 E.06694
G1 X129.273 Y191.983 E.067
M73 P1 R110
G1 X127.137 Y192.062 E.06702
M73 Q1 S111
G1 X124.999 Y192.088 E.06704
G1 X122.862 Y192.062 E.06701
G1 X120.726 Y191.983 E.06702
G1 X118.593 Y191.852 E.067
G1 X116.465 Y191.669 E.06697
G1 X114.341 Y191.434 E.067
G1 X112.221 Y191.146 E.06708
G1 X110.11 Y190.806 E.06704
G1 X108.009 Y190.415 E.06701
G1 X105.918 Y189.972 E.06702
G1 X103.839 Y189.478 E.067
G1 X101.772 Y188.933 E.06702
G1 X99.719 Y188.338 E.06702
G1 X97.681 Y187.693 E.06702
G1 X95.66 Y186.997 E.06702
G1 X93.657 Y186.252 E.06701
G1 X91.672 Y185.459 E.06702
G1 X89.707 Y184.617 E.06703
G1 X87.764 Y183.727 E.06701
G1 X85.843 Y182.789 E.06703
G1 X83.946 Y181.805 E.067
G1 X82.074 Y180.774 E.06701
G1 X80.227 Y179.698 E.06702
G1 X78.407 Y178.576 E.06704
G1 X76.616 Y177.411 E.06699
G1 X74.853 Y176.202 E.06703
G1 X73.121 Y174.949 E.06703
G1 X71.422 Y173.657 E.06692
G1 X69.753 Y172.321 E.06703
G1 X68.117 Y170.945 E.06703
G1 X66.512 Y169.526 E.06717
G1 X64.862 Y167.989 E.0707
G1 X62.016 Y165.143 E.1262
G1 X60.474 Y163.488 E.07092
G1 X59.058 Y161.886 E.06704
G1 X57.682 Y160.251 E.067
G1 X56.346 Y158.582 E.06703
G1 X55.051 Y156.879 E.06708
G1 X53.798 Y155.147 E.06703
G1 X52.589 Y153.384 E.06703
G1 X51.424 Y151.593 E.06699
G1 X50.302 Y149.773 E.06704
G1 X49.226 Y147.926 E.06702
G1 X48.195 Y146.054 E.06701
G1 X47.211 Y144.157 E.067
G1 X46.274 Y142.238 E.06696
G1 X45.383 Y140.292 E.06711
G1 X44.541 Y138.328 E.067
G1 X43.748 Y136.343 E.06702
G1 X43.003 Y134.34 E.06701
G1 X42.307 Y132.319 E.06702
G1 X41.662 Y130.281 E.06702
G1 X41.067 Y128.228 E.06702
G1 X40.522 Y126.161 E.06702
G1 X40.028 Y124.082 E.067
G1 X39.585 Y121.991 E.06702
G1 X39.194 Y119.89 E.06701
G1 X38.854 Y117.779 E.06704
G1 X38.567 Y115.664 E.06692
G1 X38.331 Y113.539 E.06704
G1 X38.148 Y111.407 E.06709
G1 X38.017 Y109.274 E.067
G1 X37.938 Y107.138 E.06702
G1 X37.912 Y105.001 E.06701
G1 X37.938 Y102.863 E.06704
G1 X38.017 Y100.727 E.06702
G1 X38.148 Y98.594 E.067
G1 X38.331 Y96.467 E.06694
G1 X38.566 Y94.342 E.06703
G1 X38.854 Y92.222 E.06708
G1 X39.194 Y90.112 E.06701
G1 X39.585 Y88.011 E.06701
G1 X40.028 Y85.919 E.06705
G1 X40.521 Y83.84 E.06699
G1 X41.066 Y81.773 E.06702
G1 X41.662 Y79.72 E.06703
G1 X42.307 Y77.683 E.06699
G1 X43.002 Y75.661 E.06704
G1 X43.747 Y73.658 E.06701
G1 X44.541 Y71.673 E.06703
G1 X45.383 Y69.709 E.067
G1 X46.273 Y67.765 E.06704
G1 X47.21 Y65.845 E.06699
G1 X48.195 Y63.947 E.06705
G1 X49.225 Y62.075 E.06699
G1 X50.302 Y60.228 E.06704
G1 X51.423 Y58.408 E.06702
G1 X52.588 Y56.617 E.06699
G1 X53.798 Y54.854 E.06704
G1 X55.05 Y53.122 E.06701
G1 X56.344 Y51.421 E.06701
G1 X57.68 Y49.752 E.06703
G1 X59.056 Y48.117 E.067
G1 X60.472 Y46.515 E.06704
G1 X62.012 Y44.861 E.07086
G1 X63.419 Y43.419 E.06317
G1 X64.858 Y42.015 E.06304
G1 X66.515 Y40.472 E.07099
G1 X68.117 Y39.056 E.06704
G1 X69.752 Y37.68 E.067
G1 X71.421 Y36.344 E.06703
G1 X73.122 Y35.05 E.06701
G1 X74.854 Y33.798 E.06701
G1 X76.617 Y32.588 E.06704
G1 X78.408 Y31.423 E.06699
G1 X80.228 Y30.302 E.06702
G1 X82.075 Y29.225 E.06704
G1 X83.947 Y28.195 E.06699
G1 X85.845 Y27.21 E.06705
G1 X87.765 Y26.273 E.06699
G1 X89.709 Y25.383 E.06704
G1 X91.673 Y24.541 E.067
G1 X93.658 Y23.747 E.06703
G1 X95.661 Y23.002 E.06701
G1 X97.683 Y22.307 E.06704
G1 X99.72 Y21.662 E.06699
G1 X101.773 Y21.066 E.06703
G1 X103.84 Y20.521 E.06702
G1 X105.919 Y20.028 E.06699
G1 X108.011 Y19.585 E.06705
G1 X110.112 Y19.194 E.06701
G1 X112.222 Y18.854 E.06701
G1 X114.338 Y18.567 E.06695
G1 X116.467 Y18.331 E.06716
G1 X118.594 Y18.148 E.06694
G1 X120.727 Y18.017 E.067
G1 X122.863 Y17.938 E.06702
G1 X124.585 Y17.917 E.054
G1 X127.138 Y17.938 E.08005
G1 X129.274 Y18.017 E.06702
G1 X131.407 Y18.148 E.067
G1 X133.535 Y18.331 E.06697
G1 X135.659 Y18.566 E.067
G1 X137.779 Y18.854 E.06708
G1 X139.89 Y19.194 E.06704
G1 X141.991 Y19.585 E.06701
G1 X144.082 Y20.028 E.06702
G1 X146.161 Y20.522 E.067
G1 X148.228 Y21.067 E.06702
G1 X150.281 Y21.662 E.06702
G1 X152.319 Y22.307 E.06702
G1 X154.34 Y23.003 E.06702
G1 X156.343 Y23.748 E.06701
