; generated by PrusaSlicer 2.9.0 on 2025-02-28 at 14:58:11 UTC


;
;
; 

; external perimeters extrusion width = 0.45mm
; perimeters extrusion width = 0.45mm
; infill extrusion width = 0.45mm
; solid infill extrusion width = 0.45mm
; top infill extrusion width = 0.40mm
; first layer extrusion width = 0.42mm

M73 P0 R120
M73 Q0 S123
M201 X1000 Y1000 Z200 E5000 ; sets maximum accelerations, mm/sec^2
M203 X200 Y200 Z12 E120 ; sets maximum feedrates, mm / sec
M204 S1250 T1250 ; sets acceleration (S) and retract acceleration (R), mm/sec^2
M205 X8.00 Y8.00 Z0.40 E4.50 ; sets the jerk limits, mm/sec
M205 S0 T0 ; sets the minimum extruding and travel feed rate, mm/sec

; printing object Godox_Flash_Polarizer_Outer_Loop.001.stl id:0 copy 0
; stop printing object Godox_Flash_Polarizer_Outer_Loop.001.stl id:0 copy 0

;TYPE:Custom
M862.3 P "MK3S" ; printer model check
M862.1 P0.4 ; nozzle diameter check
M115 U3.14.1 ; tell printer latest fw version
G90 ; use absolute coordinates
M83 ; extruder relative mode
M104 S215 ; set extruder temp
M140 S60 ; set bed temp
M190 S60 ; wait for bed temp
M109 S215 ; wait for extruder temp
G28 W ; home all without mesh bed level
G80 X29.0235 Y9.02382 W191.952 H191.952 ; mesh bed levelling

G1 Z0.2 F720
G1 Y-3 F1000 ; go outside print area
G92 E0
G1 X60 E9 F1000 ; intro line
G1 X100 E12.5 F1000 ; intro line

G92 E0
M221 S95

; Don't change E values below. Excessive value can damage the printer.
M907 E430 ; set extruder motor current
G21 ; set units to millimeters
G90 ; use absolute coordinates
M83 ; use relative distances for extrusion

M900 K0.05 ; Filament gcode LA 1.5
M900 K30 ; Filament gcode LA 1.0




M107
;LAYER_CHANGE
;Z:0.2
;HEIGHT:0.2
G1 E-.8 F2100
G1 Z.6 F720
G1 X52.173 Y42.793 F10800
G1 Z.2 F720
G1 E.8 F2100
M204 S800
;TYPE:Skirt/Brim
;WIDTH:0.42
G1 F1200
G1 X52.451 Y42.454 E.01375
G1 X55.608 Y38.969 E.14744
G1 X58.931 Y35.644 E.14739
G1 X62.414 Y32.486 E.14741
G1 X66.047 Y29.502 E.14741
G1 X69.823 Y26.7 E.14743
G1 X73.731 Y24.087 E.1474
G1 X77.763 Y21.669 E.14741
G1 X81.909 Y19.452 E.14741
G1 X86.159 Y17.44 E.14743
G1 X90.502 Y15.64 E.1474
G1 X94.928 Y14.055 E.1474
G1 X99.427 Y12.689 E.14742
G1 X103.987 Y11.545 E.14741
G1 X108.598 Y10.627 E.14741
G1 X113.249 Y9.936 E.14743
G1 X117.927 Y9.474 E.14739
G1 X122.623 Y9.242 E.14742
G1 X127.322 Y9.24 E.14733
G1 X132.019 Y9.47 E.14745
G1 X136.698 Y9.929 E.14741
G1 X141.348 Y10.618 E.14739
G1 X145.96 Y11.533 E.14742
G1 X150.521 Y12.675 E.14742
G1 X155.02 Y14.038 E.14739
G1 X159.447 Y15.621 E.14741
G1 X163.792 Y17.419 E.14744
G1 X168.042 Y19.427 E.14738
G1 X172.189 Y21.643 E.14743
G1 X176.223 Y24.058 E.14742
G1 X180.132 Y26.669 E.14739
G1 X183.91 Y29.469 E.14744
G1 X187.545 Y32.451 E.14742
M73 Q0 S122
G1 X191.029 Y35.607 E.14739
G1 X194.355 Y38.93 E.14741
G1 X197.513 Y42.413 E.14741
G1 X200.497 Y46.047 E.14743
G1 X203.298 Y49.822 E.14739
G1 X205.912 Y53.73 E.14742
G1 X208.33 Y57.762 E.14741
G1 X210.547 Y61.908 E.14741
G1 X212.559 Y66.158 E.14743
G1 X214.359 Y70.501 E.1474
G1 X215.944 Y74.927 E.1474
G1 X217.31 Y79.426 E.14742
G1 X218.454 Y83.986 E.14741
G1 X219.373 Y88.597 E.14742
G1 X220.064 Y93.247 E.1474
G1 X220.526 Y97.926 E.14742
G1 X220.758 Y102.622 E.14742
G1 X220.759 Y107.324 E.14743
G1 X220.53 Y112.02 E.14741
G1 X220.07 Y116.699 E.14741
G1 X219.382 Y121.35 E.14742
G1 X218.466 Y125.962 E.14743
G1 X217.325 Y130.523 E.14741
G1 X215.961 Y135.022 E.1474
G1 X214.378 Y139.449 E.14741
G1 X212.58 Y143.793 E.14741
G1 X210.572 Y148.044 E.14741
G1 X208.356 Y152.191 E.14743
G1 X205.94 Y156.224 E.14741
G1 X203.329 Y160.134 E.14742
G1 X200.53 Y163.911 E.1474
G1 X197.548 Y167.546 E.14742
G1 X194.392 Y171.031 E.14742
G1 X191.068 Y174.356 E.14741
G1 X187.585 Y177.514 E.14741
G1 X183.952 Y180.498 E.14741
G1 X180.176 Y183.3 E.14743
G1 X176.268 Y185.913 E.1474
G1 X172.236 Y188.331 E.14741
G1 X168.09 Y190.548 E.14741
G1 X163.841 Y192.56 E.14741
G1 X159.497 Y194.36 E.14743
G1 X155.071 Y195.945 E.1474
G1 X150.573 Y197.311 E.14739
G1 X146.012 Y198.455 E.14744
G1 X141.401 Y199.373 E.14741
G1 X136.751 Y200.064 E.1474
G1 X132.072 Y200.526 E.14742
G1 X127.376 Y200.758 E.14742
G1 X122.677 Y200.76 E.14733
G1 X117.981 Y200.53 E.14742
G1 X113.302 Y200.071 E.14741
G1 X108.651 Y199.382 E.14742
G1 X104.04 Y198.467 E.14739
G1 X99.479 Y197.325 E.14742
G1 X94.979 Y195.962 E.14742
G1 X90.552 Y194.379 E.14741
G1 X86.208 Y192.581 E.14741
G1 X81.957 Y190.573 E.14741
G1 X77.81 Y188.357 E.14743
G1 X73.777 Y185.942 E.14739
G1 X69.867 Y183.331 E.14742
G1 X66.09 Y180.531 E.14742
G1 X62.455 Y177.549 E.14742
G1 X58.97 Y174.393 E.14742
G1 X55.645 Y171.07 E.14739
G1 X52.486 Y167.587 E.14743
G1 X49.503 Y163.953 E.14741
G1 X46.701 Y160.178 E.1474
G1 X44.088 Y156.27 E.1474
G1 X41.669 Y152.238 E.14743
G1 X39.452 Y148.092 E.14741
G1 X37.441 Y143.842 E.14742
G1 X35.64 Y139.499 E.14742
G1 X34.055 Y135.073 E.1474
G1 X32.689 Y130.574 E.14742
G1 X31.545 Y126.014 E.14741
G1 X30.627 Y121.403 E.14741
G1 X29.936 Y116.753 E.1474
G1 X29.473 Y112.074 E.14742
G1 X29.241 Y107.378 E.14742
G1 X29.24 Y102.676 E.14743
G1 X29.469 Y97.98 E.14741
G1 X29.929 Y93.301 E.14741
G1 X30.618 Y88.65 E.14742
G1 X31.533 Y84.038 E.14742
G1 X32.675 Y79.477 E.14742
G1 X34.038 Y74.978 E.14739
G1 X35.621 Y70.551 E.14741
G1 X37.419 Y66.207 E.14741
G1 X39.428 Y61.956 E.14742
G1 X41.643 Y57.809 E.14741
G1 X44.059 Y53.776 E.14741
G1 X46.67 Y49.866 E.14742
G1 X49.47 Y46.089 E.14742
G1 X52.135 Y42.84 E.13176
M204 S1000
;WIPE_START
G1 F8640
G1 X52.173 Y42.793 E-.01396
G1 X52.451 Y42.454 E-.10123
G1 X54.442 Y40.256 E-.68481
;WIPE_END
G1 Z.6 F720
; printing object Godox_Flash_Polarizer_Outer_Loop.001.stl id:0 copy 0
G1 X66.269 Y40.186 F10800
G1 Z.2 F720
G1 E.8 F2100
M204 S800
;TYPE:Perimeter
;WIDTH:0.419999
G1 F1200
G1 X67.875 Y38.765 E.06724
G1 X69.492 Y37.406 E.06623
G1 X71.194 Y36.042 E.06839
G1 X72.903 Y34.743 E.06731
G1 X74.643 Y33.485 E.06732
G1 X76.413 Y32.271 E.0673
G1 X78.212 Y31.101 E.06729
G1 X80.028 Y29.982 E.06688
G1 X81.883 Y28.901 E.06732
G1 X83.763 Y27.865 E.0673
G1 X85.669 Y26.877 E.06731
G1 X87.598 Y25.935 E.06731
G1 X89.55 Y25.041 E.06732
G1 X91.522 Y24.195 E.06728
G1 X93.516 Y23.398 E.06733
G1 X95.528 Y22.65 E.0673
G1 X97.558 Y21.951 E.06732
G1 X99.604 Y21.303 E.06729
G1 X101.666 Y20.705 E.06732
G1 X103.741 Y20.157 E.06729
G1 X105.83 Y19.661 E.06732
G1 X107.93 Y19.216 E.06731
G1 X110.04 Y18.823 E.0673
G1 X112.16 Y18.482 E.06733
G1 X114.287 Y18.193 E.0673
G1 X116.421 Y17.956 E.06732
G1 X118.559 Y17.772 E.06728
G1 X120.717 Y17.64 E.06779
G1 X122.97 Y17.56 E.07069
G1 X127.009 Y17.559 E.12664
G1 X129.283 Y17.64 E.07134
G1 X131.426 Y17.771 E.06732
G1 X133.565 Y17.955 E.06731
G1 X135.699 Y18.192 E.06732
G1 X137.826 Y18.48 E.0673
G1 X139.945 Y18.821 E.06729
G1 X142.056 Y19.214 E.06733
G1 X144.156 Y19.658 E.0673
G1 X146.245 Y20.154 E.06732
G1 X148.32 Y20.701 E.06728
G1 X150.382 Y21.299 E.06732
G1 X152.429 Y21.947 E.06732
G1 X154.459 Y22.645 E.06731
G1 X156.471 Y23.393 E.0673
G1 X158.464 Y24.19 E.0673
G1 X160.437 Y25.035 E.0673
G1 X162.389 Y25.929 E.06732
G1 X164.318 Y26.87 E.0673
G1 X166.224 Y27.859 E.06733
G1 X168.104 Y28.894 E.06729
G1 X169.959 Y29.975 E.06732
G1 X171.787 Y31.101 E.06732
G1 X173.586 Y32.271 E.06729
G1 X175.357 Y33.485 E.06732
G1 X177.097 Y34.743 E.06732
G1 X178.805 Y36.042 E.06728
G1 X180.508 Y37.406 E.06841
G1 X182.124 Y38.765 E.0662
G1 X183.732 Y40.187 E.0673
G1 X185.305 Y41.648 E.06731
G1 X186.842 Y43.147 E.06732
G1 X188.341 Y44.684 E.06732
G1 X189.802 Y46.256 E.06729
G1 X191.224 Y47.864 E.0673
G1 X192.603 Y49.503 E.06716
G1 X193.948 Y51.182 E.06745
G1 X195.248 Y52.891 E.06733
G1 X196.506 Y54.631 E.06732
G1 X197.72 Y56.401 E.0673
G1 X198.891 Y58.2 E.0673
G1 X200.017 Y60.027 E.06729
G1 X201.098 Y61.882 E.06732
G1 X202.134 Y63.762 E.0673
G1 X203.122 Y65.668 E.06731
G1 X204.064 Y67.597 E.06731
G1 X204.958 Y69.549 E.06732
G1 X205.804 Y71.521 E.06728
G1 X206.601 Y73.515 E.06733
G1 X207.35 Y75.527 E.06731
G1 X208.052 Y77.57 E.06773
G1 X208.697 Y79.603 E.06687
G1 X209.295 Y81.665 E.06732
G1 X209.842 Y83.74 E.06728
G1 X210.338 Y85.829 E.06732
G1 X210.783 Y87.929 E.06731
G1 X211.176 Y90.039 E.0673
G1 X211.517 Y92.159 E.06733
G1 X211.806 Y94.286 E.0673
G1 X212.043 Y96.419 E.06729
G1 X212.227 Y98.558 E.06731
G1 X212.36 Y100.716 E.06779
G1 X212.44 Y102.972 E.07078
G1 X212.465 Y104.993 E.06337
G1 X212.44 Y107.015 E.0634
G1 X212.36 Y109.285 E.07122
G1 X212.228 Y111.428 E.06732
G1 X212.044 Y113.567 E.06731
G1 X211.808 Y115.7 E.06729
G1 X211.519 Y117.827 E.0673
G1 X211.178 Y119.947 E.06733
G1 X210.786 Y122.057 E.06729
G1 X210.341 Y124.158 E.06734
G1 X209.845 Y126.246 E.06729
G1 X209.298 Y128.322 E.06731
G1 X208.701 Y130.384 E.06731
G1 X208.052 Y132.43 E.0673
G1 X207.354 Y134.46 E.06731
G1 X206.606 Y136.472 E.0673
G1 X205.81 Y138.466 E.06732
G1 X204.964 Y140.439 E.06731
G1 X204.07 Y142.39 E.06729
G1 X203.129 Y144.32 E.06732
G1 X202.14 Y146.225 E.0673
G1 X201.105 Y148.106 E.06732
G1 X200.024 Y149.961 E.06732
G1 X198.898 Y151.788 E.06729
G1 X197.728 Y153.588 E.06731
G1 X196.514 Y155.358 E.0673
G1 X195.256 Y157.098 E.06732
G1 X193.956 Y158.806 E.0673
G1 X192.603 Y160.497 E.0679
G1 X191.233 Y162.125 E.06671
G1 X189.811 Y163.733 E.0673
G1 X188.341 Y165.316 E.06773
G1 X186.842 Y166.853 E.06732
G1 X185.305 Y168.352 E.06732
G1 X183.732 Y169.813 E.06731
G1 X182.124 Y171.235 E.0673
G1 X180.508 Y172.594 E.0662
G1 X178.805 Y173.958 E.06841
G1 X177.108 Y175.249 E.06686
G1 X175.368 Y176.507 E.06732
G1 X173.598 Y177.721 E.0673
G1 X171.799 Y178.892 E.0673
G1 X169.971 Y180.018 E.06732
G1 X168.117 Y181.099 E.06729
G1 X166.236 Y182.135 E.06733
G1 X164.331 Y183.123 E.06729
G1 X162.402 Y184.065 E.06731
G1 X160.45 Y184.959 E.06732
G1 X158.477 Y185.805 E.06731
G1 X156.484 Y186.602 E.0673
G1 X154.472 Y187.35 E.0673
G1 X152.442 Y188.049 E.06732
G1 X150.395 Y188.697 E.06732
G1 X148.334 Y189.295 E.06729
G1 X146.258 Y189.843 E.06732
G1 X144.156 Y190.342 E.06774
G1 X142.056 Y190.786 E.0673
G1 X139.959 Y191.177 E.06688
G1 X137.839 Y191.518 E.06733
G1 X135.712 Y191.807 E.0673
G1 X133.579 Y192.044 E.06729
G1 X131.44 Y192.228 E.06731
G1 X129.283 Y192.36 E.06776
G1 X127.029 Y192.44 E.07072
G1 X122.99 Y192.441 E.12664
G1 X120.716 Y192.36 E.07134
G1 X118.573 Y192.229 E.06732
G1 X116.434 Y192.045 E.06731
G1 X114.301 Y191.809 E.06729
G1 X112.174 Y191.52 E.0673
G1 X110.054 Y191.179 E.06733
G1 X107.944 Y190.786 E.0673
G1 X105.843 Y190.342 E.06733
G1 X103.741 Y189.843 E.06774
G1 X101.666 Y189.295 E.06729
G1 X99.604 Y188.697 E.06732
G1 X97.558 Y188.049 E.06729
G1 X95.528 Y187.35 E.06732
G1 X93.516 Y186.602 E.0673
G1 X91.522 Y185.805 E.06733
G1 X89.549 Y184.959 E.06731
G1 X87.598 Y184.065 E.06729
G1 X85.669 Y183.123 E.06731
G1 X83.763 Y182.135 E.06731
G1 X81.883 Y181.099 E.0673
G1 X80.028 Y180.018 E.06732
G1 X78.201 Y178.892 E.06729
G1 X76.401 Y177.721 E.06733
G1 X74.631 Y176.507 E.0673
G1 X72.903 Y175.257 E.06687
G1 X71.194 Y173.958 E.06731
G1 X69.492 Y172.594 E.06839
G1 X67.865 Y171.225 E.06667
G1 X66.257 Y169.803 E.0673
G1 X64.684 Y168.342 E.06731
G1 X63.148 Y166.843 E.06729
G1 X61.649 Y165.306 E.06732
G1 X60.188 Y163.733 E.06731
G1 X58.766 Y162.125 E.0673
M73 P0 R119
G1 X57.396 Y160.497 E.06671
G1 X56.043 Y158.806 E.0679
G1 X54.743 Y157.098 E.0673
G1 X53.486 Y155.358 E.0673
G1 X52.271 Y153.588 E.06731
G1 X51.101 Y151.788 E.06731
G1 X49.975 Y149.961 E.06729
G1 X48.894 Y148.106 E.06732
G1 X47.859 Y146.225 E.06732
G1 X46.871 Y144.32 E.06729
G1 X45.929 Y142.39 E.06734
G1 X45.035 Y140.439 E.06729
G1 X44.19 Y138.466 E.0673
G1 X43.393 Y136.472 E.06733
G1 X42.645 Y134.46 E.0673
G1 X41.947 Y132.43 E.06731
G1 X41.299 Y130.384 E.06729
G1 X40.701 Y128.322 E.06732
G1 X40.154 Y126.246 E.06731
G1 X39.658 Y124.158 E.06729
G1 X39.214 Y122.057 E.06733
G1 X38.821 Y119.947 E.0673
G1 X38.48 Y117.827 E.06733
G1 X38.191 Y115.7 E.0673
G1 X37.955 Y113.567 E.06729
G1 X37.771 Y111.428 E.06731
G1 X37.639 Y109.284 E.06735
G1 X37.559 Y107.028 E.07078
G1 X37.534 Y105.007 E.06337
G1 X37.559 Y102.985 E.0634
G1 X37.639 Y100.715 E.07122
G1 X37.771 Y98.572 E.06732
G1 X37.955 Y96.433 E.06731
G1 X38.193 Y94.286 E.06773
G1 X38.482 Y92.159 E.0673
G1 X38.823 Y90.039 E.06733
G1 X39.214 Y87.943 E.06685
G1 X39.661 Y85.829 E.06775
G1 X40.154 Y83.754 E.06687
G1 X40.705 Y81.665 E.06774
G1 X41.303 Y79.603 E.06732
G1 X41.951 Y77.557 E.06729
G1 X42.65 Y75.527 E.06732
G1 X43.398 Y73.515 E.0673
G1 X44.195 Y71.522 E.0673
G1 X45.041 Y69.549 E.06731
G1 X45.935 Y67.597 E.06732
G1 X46.877 Y65.668 E.06731
G1 X47.859 Y63.775 E.06686
G1 X48.901 Y61.882 E.06775
G1 X49.982 Y60.027 E.06732
G1 X51.108 Y58.2 E.06729
G1 X52.279 Y56.401 E.0673
G1 X53.494 Y54.631 E.06731
G1 X54.743 Y52.902 E.06688
G1 X56.043 Y51.194 E.0673
G1 X57.396 Y49.503 E.0679
G1 X58.766 Y47.875 E.06671
G1 X60.188 Y46.267 E.0673
G1 X61.649 Y44.694 E.06731
G1 X63.158 Y43.147 E.06776
G1 X64.694 Y41.648 E.06729
G1 X66.225 Y40.226 E.06551
M204 S1000
G1 X66.225 Y40.226 F10800
G1 X66.519 Y40.468
M204 S800
;TYPE:External perimeter
G1 F1200
G1 X68.116 Y39.056 E.06684
G1 X69.726 Y37.702 E.06596
G1 X71.421 Y36.344 E.0681
G1 X73.122 Y35.05 E.06701
G1 X74.854 Y33.798 E.06701
G1 X76.617 Y32.588 E.06704
G1 X78.408 Y31.423 E.06699
G1 X80.228 Y30.302 E.06702
G1 X82.075 Y29.225 E.06704
G1 X83.947 Y28.195 E.06699
G1 X85.844 Y27.21 E.06702
G1 X87.765 Y26.273 E.06701
G1 X89.709 Y25.383 E.06704
G1 X91.673 Y24.541 E.067
G1 X93.658 Y23.747 E.06703
G1 X95.661 Y23.002 E.06701
G1 X97.682 Y22.307 E.06701
G1 X99.72 Y21.661 E.06703
G1 X101.773 Y21.066 E.06702
G1 X103.84 Y20.521 E.06702
G1 X105.919 Y20.028 E.06699
G1 X108.01 Y19.585 E.06702
G1 X110.112 Y19.194 E.06704
G1 X112.222 Y18.854 E.06701
G1 X114.34 Y18.567 E.06702
G1 X116.464 Y18.331 E.06701
G1 X118.594 Y18.148 E.06703
G1 X120.727 Y18.017 E.067
G1 X122.984 Y17.936 E.07081
G1 X127.011 Y17.936 E.12626
G1 X129.272 Y18.017 E.07094
G1 X131.405 Y18.148 E.067
G1 X133.535 Y18.331 E.06703
G1 X135.659 Y18.567 E.06701
G1 X137.777 Y18.854 E.06702
G1 X139.888 Y19.194 E.06704
G1 X141.989 Y19.585 E.06701
G1 X144.08 Y20.028 E.06702
G1 X146.16 Y20.521 E.06702
G1 X148.226 Y21.066 E.06699
G1 X150.279 Y21.661 E.06702
G1 X152.317 Y22.307 E.06703
G1 X154.338 Y23.002 E.06701
G1 X156.342 Y23.747 E.06704
G1 X158.326 Y24.541 E.067
G1 X160.291 Y25.383 E.06703
G1 X162.234 Y26.273 E.06701
G1 X164.155 Y27.21 E.06701
G1 X166.052 Y28.195 E.06702
G1 X167.925 Y29.225 E.06702
G1 X169.771 Y30.301 E.06699
G1 X171.591 Y31.423 E.06704
G1 X173.383 Y32.588 E.06702
G1 X175.145 Y33.797 E.067
G1 X176.878 Y35.05 E.06705
G1 X178.578 Y36.344 E.06699
G1 X180.274 Y37.702 E.06812
G1 X181.883 Y39.056 E.06593
G1 X183.484 Y40.471 E.06699
G1 X185.05 Y41.926 E.06702
G1 X186.58 Y43.419 E.06703
G1 X188.073 Y44.949 E.06703
G1 X189.527 Y46.515 E.067
G1 X190.943 Y48.116 E.06701
G1 X192.307 Y49.737 E.06642
G1 X193.655 Y51.42 E.06761
G1 X194.949 Y53.121 E.06701
G1 X196.201 Y54.853 E.06701
G1 X197.411 Y56.616 E.06704
G1 X198.576 Y58.407 E.06699
G1 X199.697 Y60.227 E.06702
M73 P1 R119
G1 X200.774 Y62.074 E.06704
G1 X201.804 Y63.946 E.06699
G1 X202.789 Y65.844 E.06705
G1 X203.726 Y67.764 E.06699
G1 X204.616 Y69.708 E.06704
G1 X205.459 Y71.672 E.06701
G1 X206.252 Y73.657 E.06702
G1 X206.997 Y75.66 E.06701
G1 X207.692 Y77.681 E.06701
G1 X208.338 Y79.719 E.06703
G1 X208.933 Y81.772 E.06702
G1 X209.478 Y83.839 E.06702
M73 Q1 S122
G1 X209.972 Y85.918 E.067
G1 X210.414 Y88.009 E.06701
M73 Q1 S121
G1 X210.806 Y90.111 E.06704
G1 X211.145 Y92.221 E.06701
G1 X211.433 Y94.339 E.06702
G1 X211.669 Y96.463 E.06701
G1 X211.852 Y98.593 E.06703
G1 X211.983 Y100.726 E.067
G1 X212.063 Y102.986 E.0709
G1 X212.088 Y105 E.06315
G1 X212.063 Y107.01 E.06303
G1 X211.983 Y109.274 E.07103
G1 X211.852 Y111.407 E.067
G1 X211.669 Y113.537 E.06703
G1 X211.433 Y115.661 E.06701
G1 X211.145 Y117.779 E.06702
G1 X210.806 Y119.889 E.06701
G1 X210.414 Y121.991 E.06704
G1 X209.972 Y124.082 E.06701
G1 X209.478 Y126.161 E.067
G1 X208.933 Y128.228 E.06702
G1 X208.338 Y130.281 E.06702
G1 X207.692 Y132.319 E.06703
G1 X206.997 Y134.34 E.06701
G1 X206.252 Y136.343 E.06701
G1 X205.459 Y138.328 E.06702
G1 X204.616 Y140.292 E.06701
G1 X203.726 Y142.236 E.06704
G1 X202.789 Y144.156 E.06699
