; generated by PrusaSlicer 2.9.0 on 2025-02-28 at 14:59:01 UTC


;
;
; 

; external perimeters extrusion width = 0.45mm
; perimeters extrusion width = 0.45mm
; infill extrusion width = 0.45mm
; solid infill extrusion width = 0.45mm
; top infill extrusion width = 0.40mm
; first layer extrusion width = 0.42mm

M73 P0 R80
M73 Q0 S80
M201 X1000 Y1000 Z200 E5000 ; sets maximum accelerations, mm/sec^2
M203 X200 Y200 Z12 E120 ; sets maximum feedrates, mm / sec
M204 S1250 T1250 ; sets acceleration (S) and retract acceleration (R), mm/sec^2
M205 X8.00 Y8.00 Z0.40 E4.50 ; sets the jerk limits, mm/sec
M205 S0 T0 ; sets the minimum extruding and travel feed rate, mm/sec

; printing object Godox_Flash_Polarizer_Center_Support.001.stl id:0 copy 0
; stop printing object Godox_Flash_Polarizer_Center_Support.001.stl id:0 copy 0

;TYPE:Custom
M862.3 P "MK3S" ; printer model check
M862.1 P0.4 ; nozzle diameter check
M115 U3.14.1 ; tell printer latest fw version
G90 ; use absolute coordinates
M83 ; extruder relative mode
M104 S215 ; set extruder temp
M140 S60 ; set bed temp
M190 S60 ; wait for bed temp
M109 S215 ; wait for extruder temp
G28 W ; home all without mesh bed level
G80 X32.1226 Y12.1226 W185.755 H185.755 ; mesh bed levelling

G1 Z0.2 F720
G1 Y-3 F1000 ; go outside print area
G92 E0
G1 X60 E9 F1000 ; intro line
G1 X100 E12.5 F1000 ; intro line

G92 E0
M221 S95

; Don't change E values below. Excessive value can damage the printer.
M907 E430 ; set extruder motor current
G21 ; set units to millimeters
G90 ; use absolute coordinates
M83 ; use relative distances for extrusion

M900 K0.05 ; Filament gcode LA 1.5
M900 K30 ; Filament gcode LA 1.0




M107
;LAYER_CHANGE
;Z:0.2
;HEIGHT:0.2
G1 E-.8 F2100
G1 Z.6 F720
G1 X54.569 Y44.758 F10800
G1 Z.2 F720
G1 E.8 F2100
M204 S800
;TYPE:Skirt/Brim
;WIDTH:0.42
G1 F1200
G1 X54.798 Y44.478 E.01134
G1 X57.852 Y41.106 E.14264
G1 X61.068 Y37.888 E.14265
G1 X64.438 Y34.832 E.14264
G1 X67.954 Y31.945 E.14264
G1 X71.608 Y29.234 E.14266
G1 X75.39 Y26.705 E.14265
G1 X79.291 Y24.365 E.14263
G1 X83.303 Y22.22 E.14264
G1 X87.415 Y20.274 E.14264
G1 X91.617 Y18.531 E.14264
G1 X95.901 Y16.997 E.14267
G1 X100.254 Y15.676 E.14263
G1 X104.666 Y14.569 E.14262
G1 X109.128 Y13.68 E.14265
G1 X113.628 Y13.011 E.14265
G1 X118.156 Y12.564 E.14266
G1 X122.699 Y12.34 E.14262
G1 X127.096 Y12.337 E.13786
M73 P0 R79
G1 X131.791 Y12.56 E.14737
G1 X136.319 Y13.005 E.14266
G1 X140.819 Y13.671 E.14263
G1 X145.281 Y14.557 E.14263
G1 X149.695 Y15.661 E.14266
G1 X154.048 Y16.981 E.14262
G1 X158.332 Y18.512 E.14264
G1 X162.536 Y20.252 E.14266
G1 X166.649 Y22.196 E.14264
G1 X170.662 Y24.339 E.14264
G1 X174.565 Y26.677 E.14265
G1 X178.348 Y29.203 E.14263
G1 X182.003 Y31.912 E.14265
G1 X185.521 Y34.797 E.14265
G1 X188.893 Y37.851 E.14264
G1 X192.111 Y41.067 E.14265
G1 X195.167 Y44.437 E.14264
G1 X198.054 Y47.953 E.14264
G1 X200.765 Y51.606 E.14263
G1 X203.294 Y55.388 E.14265
G1 X205.634 Y59.29 E.14266
G1 X207.78 Y63.301 E.14263
G1 X209.726 Y67.414 E.14267
G1 X211.468 Y71.616 E.14262
G1 X213.002 Y75.899 E.14264
G1 X214.324 Y80.252 E.14264
G1 X215.431 Y84.665 E.14265
G1 X216.32 Y89.127 E.14265
G1 X216.988 Y93.627 E.14264
G1 X217.436 Y98.154 E.14263
G1 X217.66 Y102.698 E.14265
G1 X217.662 Y107.248 E.14266
G1 X217.44 Y111.792 E.14264
G1 X216.995 Y116.32 E.14266
G1 X216.329 Y120.82 E.14263
G1 X215.442 Y125.283 E.14267
G1 X214.338 Y129.696 E.14263
G1 X213.019 Y134.05 E.14264
G1 X211.487 Y138.334 E.14265
G1 X209.748 Y142.537 E.14262
G1 X207.804 Y146.651 E.14267
G1 X205.66 Y150.663 E.14263
G1 X203.323 Y154.566 E.14264
G1 X200.796 Y158.35 E.14267
G1 X198.087 Y162.005 E.14265
G1 X195.202 Y165.522 E.14263
G1 X192.148 Y168.894 E.14264
G1 X188.932 Y172.112 E.14265
G1 X185.562 Y175.168 E.14264
G1 X182.046 Y178.055 E.14264
G1 X178.392 Y180.766 E.14266
G1 X174.61 Y183.295 E.14265
G1 X170.709 Y185.635 E.14263
G1 X166.697 Y187.78 E.14264
G1 X162.585 Y189.726 E.14264
G1 X158.383 Y191.469 E.14264
G1 X154.099 Y193.003 E.14267
G1 X149.746 Y194.324 E.14263
G1 X145.334 Y195.431 E.14262
G1 X140.872 Y196.32 E.14265
G1 X136.372 Y196.989 E.14265
G1 X131.844 Y197.436 E.14266
G1 X127.301 Y197.66 E.14262
G1 X122.753 Y197.662 E.1426
G1 X118.209 Y197.44 E.14264
G1 X113.681 Y196.995 E.14266
G1 X109.181 Y196.329 E.14263
G1 X104.719 Y195.443 E.14263
G1 X100.305 Y194.339 E.14266
G1 X95.952 Y193.019 E.14262
G1 X91.668 Y191.488 E.14264
G1 X87.464 Y189.748 E.14266
G1 X83.351 Y187.804 E.14264
G1 X79.338 Y185.661 E.14264
G1 X75.435 Y183.323 E.14265
G1 X71.652 Y180.797 E.14263
G1 X67.997 Y178.088 E.14265
G1 X64.479 Y175.203 E.14265
G1 X61.107 Y172.149 E.14264
G1 X57.889 Y168.933 E.14265
G1 X54.833 Y165.563 E.14264
G1 X51.946 Y162.047 E.14264
G1 X49.235 Y158.394 E.14263
G1 X46.706 Y154.612 E.14265
G1 X44.366 Y150.71 E.14266
G1 X42.22 Y146.699 E.14263
G1 X40.274 Y142.586 E.14267
G1 X38.532 Y138.384 E.14262
G1 X36.998 Y134.101 E.14264
G1 X35.676 Y129.748 E.14264
G1 X34.569 Y125.335 E.14265
G1 X33.68 Y120.873 E.14265
G1 X33.012 Y116.373 E.14264
G1 X32.564 Y111.846 E.14263
G1 X32.34 Y107.302 E.14265
G1 X32.338 Y102.752 E.14266
G1 X32.56 Y98.208 E.14264
G1 X33.005 Y93.68 E.14266
G1 X33.671 Y89.18 E.14263
G1 X34.558 Y84.717 E.14267
G1 X35.662 Y80.304 E.14263
G1 X36.981 Y75.95 E.14264
G1 X38.513 Y71.666 E.14265
G1 X40.252 Y67.463 E.14262
G1 X42.196 Y63.349 E.14267
G1 X44.34 Y59.337 E.14263
G1 X46.677 Y55.434 E.14264
G1 X49.204 Y51.65 E.14267
G1 X51.913 Y47.996 E.14262
G1 X54.531 Y44.804 E.12944
M204 S1000
;WIPE_START
G1 F8640
G1 X54.569 Y44.758 E-.01378
G1 X54.798 Y44.478 E-.08352
G1 X56.841 Y42.222 E-.7027
;WIPE_END
G1 Z.6 F720
; printing object Godox_Flash_Polarizer_Center_Support.001.stl id:0 copy 0
G1 X106.737 Y149.066 F10800
G1 Z.2 F720
G1 E.8 F2100
M204 S800
;TYPE:Perimeter
;WIDTH:0.419999
G1 F1200
G1 X105.677 Y148.611 E.03617
G1 X104.612 Y148.124 E.03672
G1 X103.56 Y147.611 E.0367
G1 X102.521 Y147.072 E.0367
G1 X101.495 Y146.507 E.03672
G1 X100.483 Y145.918 E.03671
G1 X99.486 Y145.304 E.03671
G1 X98.505 Y144.666 E.03669
G1 X97.54 Y144.004 E.03669
G1 X96.591 Y143.318 E.03672
G1 X95.659 Y142.609 E.03672
G1 X94.745 Y141.878 E.0367
G1 X93.849 Y141.124 E.03672
G1 X92.972 Y140.349 E.0367
G1 X92.114 Y139.552 E.03672
G1 X91.276 Y138.735 E.0367
G1 X90.458 Y137.897 E.03672
G1 X89.661 Y137.039 E.03672
G1 X88.885 Y136.162 E.03672
G1 X88.132 Y135.267 E.03667
G1 X87.4 Y134.353 E.03672
G1 X86.691 Y133.421 E.03672
G1 X86.005 Y132.472 E.03672
G1 X85.342 Y131.507 E.03671
G1 X84.704 Y130.526 E.03669
G1 X84.09 Y129.529 E.03671
G1 X83.5 Y128.518 E.0367
G1 X82.935 Y127.492 E.03672
G1 X82.396 Y126.453 E.0367
G1 X81.882 Y125.401 E.03671
G1 X81.395 Y124.337 E.03669
G1 X80.933 Y123.261 E.03672
G1 X80.498 Y122.174 E.03671
G1 X80.09 Y121.077 E.0367
G1 X79.709 Y119.97 E.03671
G1 X79.355 Y118.854 E.03671
G1 X79.029 Y117.729 E.03672
G1 X78.731 Y116.597 E.0367
G1 X78.46 Y115.458 E.03671
G1 X78.217 Y114.313 E.0367
G1 X78.003 Y113.162 E.03671
G1 X77.817 Y112.006 E.03671
G1 X77.659 Y110.846 E.03671
G1 X77.53 Y109.683 E.03669
G1 X77.429 Y108.516 E.03673
G1 X77.357 Y107.348 E.03669
G1 X77.314 Y106.164 E.03715
G1 X77.299 Y104.993 E.03672
G1 X77.314 Y103.836 E.03628
G1 X77.357 Y102.666 E.03671
G1 X77.429 Y101.492 E.03688
G1 X77.528 Y100.331 E.03653
G1 X77.657 Y99.168 E.03669
G1 X77.815 Y98.007 E.03674
G1 X78.001 Y96.852 E.03668
G1 X78.215 Y95.701 E.03671
G1 X78.457 Y94.555 E.03672
G1 X78.727 Y93.416 E.0367
G1 X79.026 Y92.284 E.03671
G1 X79.351 Y91.16 E.03669
G1 X79.705 Y90.043 E.03674
G1 X80.086 Y88.936 E.03671
G1 X80.493 Y87.839 E.03669
G1 X80.928 Y86.752 E.03671
G1 X81.389 Y85.676 E.0367
G1 X81.876 Y84.611 E.03672
G1 X82.39 Y83.559 E.03671
G1 X82.929 Y82.52 E.0367
G1 X83.493 Y81.494 E.03671
G1 X84.082 Y80.483 E.03669
G1 X84.696 Y79.486 E.03671
G1 X85.335 Y78.504 E.03673
G1 X85.997 Y77.539 E.03669
G1 X86.683 Y76.59 E.03672
G1 X87.391 Y75.658 E.0367
G1 X88.123 Y74.744 E.03672
G1 X88.876 Y73.848 E.0367
G1 X89.652 Y72.971 E.03672
G1 X90.448 Y72.113 E.0367
G1 X91.266 Y71.275 E.03672
G1 X92.104 Y70.458 E.0367
G1 X92.961 Y69.661 E.03669
G1 X93.838 Y68.885 E.03672
G1 X94.734 Y68.131 E.03672
G1 X95.648 Y67.399 E.03672
G1 X96.58 Y66.69 E.03672
G1 X97.528 Y66.004 E.03669
G1 X98.494 Y65.342 E.03672
G1 X99.475 Y64.703 E.03671
G1 X100.471 Y64.089 E.03669
G1 X101.483 Y63.5 E.03671
G1 X102.508 Y62.935 E.0367
G1 X103.547 Y62.396 E.0367
G1 X104.599 Y61.882 E.03671
G1 X105.664 Y61.394 E.03673
G1 X106.74 Y60.933 E.0367
G1 X107.827 Y60.498 E.03671
G1 X108.924 Y60.09 E.0367
G1 X110.031 Y59.709 E.03671
G1 X111.147 Y59.355 E.03671
G1 X112.271 Y59.029 E.03669
G1 X113.403 Y58.731 E.0367
G1 X114.542 Y58.46 E.03671
G1 X115.688 Y58.217 E.03673
G1 X116.839 Y58.003 E.03671
G1 X117.994 Y57.817 E.03668
G1 X119.154 Y57.659 E.03671
G1 X120.318 Y57.53 E.03672
G1 X121.484 Y57.429 E.0367
G1 X122.653 Y57.357 E.03672
G1 X123.837 Y57.314 E.03715
G1 X124.912 Y57.3 E.03371
G1 X126.162 Y57.314 E.0392
G1 X127.333 Y57.356 E.03674
G1 X128.507 Y57.428 E.03688
G1 X129.668 Y57.528 E.03654
G1 X130.832 Y57.657 E.03672
G1 X131.992 Y57.815 E.03671
G1 X133.148 Y58 E.03671
G1 X134.299 Y58.215 E.03671
G1 X135.444 Y58.457 E.03669
G1 X136.583 Y58.727 E.0367
G1 X137.715 Y59.025 E.0367
G1 X138.84 Y59.351 E.03672
G1 X139.956 Y59.705 E.03671
G1 X141.063 Y60.085 E.0367
G1 X142.16 Y60.493 E.0367
G1 X143.247 Y60.928 E.03671
G1 X144.323 Y61.389 E.0367
G1 X145.388 Y61.876 E.03672
G1 X146.44 Y62.389 E.0367
G1 X147.479 Y62.928 E.0367
G1 X148.505 Y63.493 E.03672
G1 X149.517 Y64.082 E.03671
G1 X150.514 Y64.696 E.03671
G1 X151.495 Y65.334 E.03669
G1 X152.46 Y65.996 E.03669
G1 X153.409 Y66.682 E.03672
G1 X154.341 Y67.391 E.03672
G1 X155.255 Y68.122 E.0367
G1 X156.151 Y68.876 E.03672
G1 X157.028 Y69.651 E.0367
G1 X157.886 Y70.448 E.03672
G1 X158.724 Y71.265 E.0367
G1 X159.542 Y72.103 E.03672
G1 X160.339 Y72.961 E.03672
G1 X161.115 Y73.838 E.03672
G1 X161.868 Y74.733 E.03667
G1 X162.6 Y75.647 E.03672
G1 X163.309 Y76.579 E.03672
G1 X163.995 Y77.528 E.03672
G1 X164.658 Y78.493 E.03671
G1 X165.296 Y79.474 E.03669
G1 X165.91 Y80.471 E.03671
G1 X166.5 Y81.482 E.0367
G1 X167.065 Y82.508 E.03672
G1 X167.604 Y83.547 E.0367
G1 X168.118 Y84.599 E.03671
G1 X168.605 Y85.663 E.03669
G1 X169.067 Y86.739 E.03672
G1 X169.502 Y87.826 E.03671
G1 X169.91 Y88.923 E.0367
G1 X170.291 Y90.03 E.03671
G1 X170.645 Y91.146 E.03671
G1 X170.971 Y92.271 E.03672
G1 X171.269 Y93.403 E.0367
G1 X171.54 Y94.542 E.03671
G1 X171.783 Y95.687 E.0367
G1 X171.997 Y96.838 E.03671
G1 X172.183 Y97.994 E.03671
G1 X172.341 Y99.154 E.03671
G1 X172.47 Y100.317 E.03669
G1 X172.571 Y101.484 E.03673
G1 X172.643 Y102.652 E.03669
G1 X172.686 Y103.836 E.03715
G1 X172.701 Y105.007 E.03672
G1 X172.686 Y106.164 E.03628
G1 X172.643 Y107.334 E.03671
G1 X172.571 Y108.508 E.03688
G1 X172.472 Y109.669 E.03653
G1 X172.343 Y110.832 E.03669
G1 X172.185 Y111.993 E.03674
G1 X171.999 Y113.148 E.03668
G1 X171.785 Y114.299 E.03671
G1 X171.543 Y115.445 E.03672
G1 X171.273 Y116.584 E.0367
G1 X170.974 Y117.716 E.03671
M73 Q1 S80
G1 X170.649 Y118.84 E.03669
M73 P1 R79
G1 X170.295 Y119.957 E.03674
G1 X169.914 Y121.064 E.03671
G1 X169.507 Y122.161 E.03669
G1 X169.072 Y123.248 E.03671
G1 X168.611 Y124.324 E.0367
G1 X168.124 Y125.389 E.03672
G1 X167.61 Y126.441 E.03671
G1 X167.071 Y127.48 E.0367
G1 X166.507 Y128.506 E.03671
G1 X165.918 Y129.517 E.03669
G1 X165.304 Y130.514 E.03671
G1 X164.665 Y131.496 E.03673
G1 X164.003 Y132.461 E.03669
G1 X163.317 Y133.41 E.03672
G1 X162.609 Y134.342 E.0367
G1 X161.877 Y135.256 E.03672
G1 X161.124 Y136.152 E.0367
G1 X160.348 Y137.029 E.03672
G1 X159.552 Y137.887 E.0367
G1 X158.734 Y138.725 E.03672
G1 X157.896 Y139.543 E.03672
G1 X157.039 Y140.339 E.03667
G1 X156.162 Y141.115 E.03672
G1 X155.266 Y141.869 E.03672
G1 X154.352 Y142.601 E.03672
G1 X153.42 Y143.31 E.03672
G1 X152.472 Y143.996 E.03669
G1 X151.506 Y144.658 E.03672
G1 X150.525 Y145.297 E.03671
G1 X149.529 Y145.911 E.03669
G1 X148.517 Y146.5 E.03671
G1 X147.492 Y147.065 E.0367
G1 X146.453 Y147.604 E.0367
G1 X145.401 Y148.118 E.03671
G1 X144.336 Y148.606 E.03673
G1 X143.26 Y149.067 E.0367
G1 X142.173 Y149.502 E.03671
G1 X141.076 Y149.91 E.0367
G1 X139.969 Y150.291 E.03671
G1 X138.853 Y150.645 E.03671
G1 X137.729 Y150.971 E.03669
G1 X136.597 Y151.269 E.0367
G1 X135.458 Y151.54 E.03671
G1 X134.312 Y151.783 E.03673
G1 X133.161 Y151.997 E.03671
G1 X132.006 Y152.183 E.03668
G1 X130.846 Y152.341 E.03671
G1 X129.682 Y152.47 E.03672
G1 X128.516 Y152.571 E.0367
G1 X127.347 Y152.643 E.03672
G1 X126.163 Y152.686 E.03715
G1 X124.993 Y152.701 E.03669
G1 X123.837 Y152.686 E.03625
G1 X122.667 Y152.644 E.03671
G1 X121.493 Y152.572 E.03688
G1 X120.332 Y152.472 E.03654
G1 X119.168 Y152.343 E.03672
G1 X118.008 Y152.185 E.03671
G1 X116.852 Y152 E.03671
M73 Q1 S79
G1 X115.701 Y151.785 E.03671
G1 X114.556 Y151.543 E.03669
G1 X113.417 Y151.273 E.0367
G1 X112.285 Y150.975 E.0367
G1 X111.16 Y150.649 E.03672
G1 X110.044 Y150.295 E.03671
G1 X108.937 Y149.915 E.0367
G1 X107.84 Y149.507 E.0367
G1 X106.793 Y149.089 E.03535
M204 S1000
G1 X106.793 Y149.089 F10800
G1 X106.886 Y148.719
M204 S800
;TYPE:External perimeter
G1 F1200
G1 X105.823 Y148.264 E.03625
G1 X104.767 Y147.78 E.03642
G1 X103.723 Y147.271 E.03642
G1 X102.692 Y146.736 E.03642
G1 X101.675 Y146.176 E.0364
G1 X100.671 Y145.591 E.03643
G1 X99.682 Y144.982 E.03642
G1 X98.709 Y144.348 E.03641
G1 X97.751 Y143.691 E.03642
G1 X96.81 Y143.011 E.0364
G1 X95.885 Y142.308 E.03643
G1 X94.979 Y141.582 E.0364
G1 X94.09 Y140.834 E.03643
G1 X93.22 Y140.065 E.03641
G1 X92.369 Y139.274 E.03643
G1 X91.537 Y138.463 E.03643
G1 X90.726 Y137.632 E.03641
G1 X89.936 Y136.781 E.03641
G1 X89.166 Y135.911 E.03643
G1 X88.419 Y135.022 E.03641
G1 X87.693 Y134.115 E.03643
G1 X86.99 Y133.191 E.0364
G1 X86.309 Y132.25 E.03642
G1 X85.652 Y131.292 E.03642
G1 X85.019 Y130.318 E.03642
G1 X84.409 Y129.329 E.03643
G1 X83.825 Y128.326 E.03639
G1 X83.265 Y127.308 E.03643
G1 X82.73 Y126.278 E.03639
G1 X82.22 Y125.234 E.03643
G1 X81.736 Y124.178 E.03642
G1 X81.279 Y123.11 E.03642
G1 X80.848 Y122.032 E.0364
G1 X80.443 Y120.943 E.03643
G1 X80.065 Y119.845 E.03641
G1 X79.714 Y118.738 E.03641
G1 X79.391 Y117.622 E.03643
G1 X79.095 Y116.499 E.03641
G1 X78.826 Y115.369 E.03642
G1 X78.586 Y114.233 E.0364
G1 X78.373 Y113.091 E.03642
G1 X78.189 Y111.944 E.03642
G1 X78.032 Y110.793 E.03642
G1 X77.904 Y109.639 E.0364
G1 X77.805 Y108.479 E.0365
G1 X77.734 Y107.325 E.03625
G1 X77.691 Y106.159 E.03658
G1 X77.676 Y105 E.03634
G1 X77.691 Y103.841 E.03634
G1 X77.734 Y102.675 E.03658
G1 X77.805 Y101.519 E.03631
G1 X77.905 Y100.359 E.03651
G1 X78.032 Y99.207 E.03634
G1 X78.189 Y98.056 E.03642
G1 X78.373 Y96.909 E.03642
G1 X78.586 Y95.767 E.03642
G1 X78.826 Y94.631 E.0364
G1 X79.095 Y93.501 E.03642
G1 X79.391 Y92.378 E.03641
G1 X79.714 Y91.262 E.03643
G1 X80.065 Y90.155 E.03641
G1 X80.443 Y89.057 E.03641
G1 X80.848 Y87.968 E.03643
G1 X81.279 Y86.89 E.0364
G1 X81.736 Y85.822 E.03642
G1 X82.22 Y84.766 E.03642
G1 X82.73 Y83.723 E.0364
G1 X83.265 Y82.692 E.03642
G1 X83.825 Y81.674 E.03643
G1 X84.409 Y80.671 E.03639
G1 X85.019 Y79.682 E.03643
G1 X85.651 Y78.71 E.03635
G1 X86.309 Y77.75 E.03649
G1 X86.99 Y76.809 E.03642
G1 X87.693 Y75.885 E.0364
G1 X88.419 Y74.978 E.03643
G1 X89.166 Y74.089 E.03641
G1 X89.936 Y73.219 E.03643
G1 X90.726 Y72.368 E.03641
G1 X91.537 Y71.537 E.03641
G1 X92.369 Y70.726 E.03643
G1 X93.22 Y69.935 E.03643
G1 X94.09 Y69.166 E.03641
G1 X94.979 Y68.418 E.03643
G1 X95.885 Y67.692 E.0364
G1 X96.81 Y66.989 E.03643
G1 X97.751 Y66.309 E.0364
G1 X98.709 Y65.652 E.03642
G1 X99.682 Y65.018 E.03641
G1 X100.671 Y64.409 E.03642
G1 X101.675 Y63.824 E.03643
G1 X102.692 Y63.264 E.0364
G1 X103.723 Y62.729 E.03642
G1 X104.767 Y62.22 E.03642
G1 X105.823 Y61.736 E.03642
G1 X106.89 Y61.279 E.03639
G1 X107.969 Y60.847 E.03644
G1 X109.058 Y60.443 E.03642
G1 X110.156 Y60.065 E.03641
G1 X111.263 Y59.714 E.03641
G1 X112.379 Y59.391 E.03643
G1 X113.502 Y59.095 E.03641
G1 X114.632 Y58.826 E.03642
G1 X115.768 Y58.586 E.0364
G1 X116.91 Y58.373 E.03642
G1 X118.057 Y58.189 E.03642
G1 X119.208 Y58.032 E.03642
G1 X120.362 Y57.904 E.0364
G1 X121.521 Y57.804 E.03647
G1 X122.676 Y57.734 E.03628
